symbols/web/account_tree/materialsymbolsrounded/account_tree_wght500grad200_20px.svg

<svg xmlns="http://www.w3.org/2000/svg" height="20" width="20"><path d="M14.938 18.188q-1 0-1.709-.678-.708-.677-.729-1.677v-.187h-1.271q-1.021 0-1.729-.708-.708-.709-.708-1.73V6.771H7.5v.187q0 1-.708 1.677-.709.677-1.73.677H3.229q-1.041 0-1.75-.697-.708-.698-.708-1.74V4.25q0-1.021.708-1.729.709-.709 1.75-.709h1.833q1.021 0 1.73.678.708.677.708 1.677v.166h5v-.166q0-1 .708-1.677.709-.678 1.73-.678h1.833q1.041 0 1.75.709.708.708.708 1.729v2.625q0 1.042-.708 1.74-.709.697-1.75.697h-1.833q-1.021 0-1.73-.677-.708-.677-.708-1.677v-.187h-1.271v6.437H12.5v-.187q0-1 .708-1.677.709-.677 1.73-.677h1.833q1.041 0 1.75.698.708.697.708 1.739v2.646q0 1.021-.708 1.729-.709.709-1.75.709ZM3.229 4.25v2.625Zm11.709 8.854v2.646Zm0-8.854v2.625Zm0 2.625h1.833V4.25h-1.833Zm0 8.875h1.833v-2.646h-1.833ZM3.229 6.875h1.833V4.25H3.229Z"/></svg>

<svg xmlns="http://www.w3.org/2000/svg" height="20" width="20"><path d="M14.938 18.188Q13.938 18.188 13.229 17.51Q12.521 16.833 12.5 15.833V15.646H11.229Q10.208 15.646 9.5 14.938Q8.792 14.229 8.792 13.208V6.771H7.5V6.958Q7.5 7.958 6.792 8.635Q6.083 9.312 5.062 9.312H3.229Q2.188 9.312 1.479 8.615Q0.771 7.917 0.771 6.875V4.25Q0.771 3.229 1.479 2.521Q2.188 1.812 3.229 1.812H5.062Q6.083 1.812 6.792 2.49Q7.5 3.167 7.5 4.167V4.333H12.5V4.167Q12.5 3.167 13.208 2.49Q13.917 1.812 14.938 1.812H16.771Q17.812 1.812 18.521 2.521Q19.229 3.229 19.229 4.25V6.875Q19.229 7.917 18.521 8.615Q17.812 9.312 16.771 9.312H14.938Q13.917 9.312 13.208 8.635Q12.5 7.958 12.5 6.958V6.771H11.229V13.208H12.5V13.021Q12.5 12.021 13.208 11.344Q13.917 10.667 14.938 10.667H16.771Q17.812 10.667 18.521 11.365Q19.229 12.062 19.229 13.104V15.75Q19.229 16.771 18.521 17.479Q17.812 18.188 16.771 18.188ZM3.229 4.25V6.875ZM14.938 13.104V15.75ZM14.938 4.25V6.875ZM14.938 6.875H16.771V4.25H14.938ZM14.938 15.75H16.771V13.104H14.938ZM3.229 6.875H5.062V4.25H3.229Z"/></svg>
